2 Export/Icons/Brands/Windows.svg

<svg xmlns="http://www.w3.org/2000/svg" xmlns:xlink="http://www.w3.org/1999/xlink" width="24" height="24" viewBox="0 0 24 24">
  <defs>
    <path id="windows-a" d="M3,5.58675 L10.3125,4.575 L10.3125,11.66325 L3,11.66325 M11.21175,4.46175 L21,3 L21,11.55 L11.21175,11.55 M3,12.45 L10.3125,12.45 L10.3125,19.53825 L3,18.52425 M11.21175,12.45 L21,12.45 L21,21 L11.325,19.64925"/>
  </defs>
  <g fill="none" fill-rule="evenodd">
    <polygon points="0 0 24 0 24 24 0 24"/>
    <mask id="windows-b" fill="#fff">
      <use xlink:href="#windows-a"/>
    </mask>
    <use fill="#000" xlink:href="#windows-a"/>
    <g fill="#000" mask="url(#windows-b)">
      <rect width="24" height="24"/>
    </g>
  </g>
</svg>

<svg xmlns="http://www.w3.org/2000/svg" xmlns:xlink="http://www.w3.org/1999/xlink" width="24" height="24" viewBox="0 0 24 24">
  <defs>
    <path id="windows-a" d="M3 5.587l7.313-1.012v7.088H3m8.212-7.201L21 3v8.55h-9.788M3 12.45h7.313v7.088L3 18.524m8.212-6.074H21V21l-9.675-1.35"/>
  </defs>
  <g fill="none" fill-rule="evenodd">
    <polygon points="0 0 24 0 24 24 0 24"/>
    <mask id="windows-b" fill="#fff">
      <use xlink:href="#windows-a"/>
    </mask>
    <use fill="#000" xlink:href="#windows-a"/>
    <g fill="#000" mask="url(#windows-b)">
      <rect width="24" height="24"/>
    </g>
  </g>
</svg>
